other/svg-icons/thick-arrow-down.svg

<svg width="15" height="15" viewBox="0 0 15 15" fill="none" xmlns="http://www.w3.org/2000/svg">
 <path d="m5 3.5c0-0.27614 0.22386-0.5 0.5-0.5h4c0.27614 0 0.5 0.22386 0.5 0.5v2.5h2.5c0.1873 0 0.3589 0.10467 0.4446 0.27121 0.0857 0.16653 0.0711 0.367-0.0377 0.51941l-5 7c-0.09386 0.1314-0.24539 0.2094-0.40687 0.2094-0.16147 0-0.31301-0.078-0.40686-0.2094l-5-7c-0.10887-0.15241-0.12342-0.35288-0.03772-0.51941 0.0857-0.16654 0.25729-0.27121 0.44458-0.27121h2.5z" fill="currentColor" fill-rule="evenodd" clip-rule="evenodd" />
</svg>

<svg width="15" height="15" viewBox="0 0 15 15" fill="none" xmlns="http://www.w3.org/2000/svg"><path d="M5 3.5C5 3.22386 5.22386 3 5.5 3H9.5C9.77614 3 10 3.22386 10 3.5V6H12.5C12.6873 6 12.8589 6.10467 12.9446 6.27121C13.0303 6.43774 13.0157 6.63821 12.9069 6.79062L7.90687 13.7906C7.81301 13.922 7.66148 14 7.5 14C7.33853 14 7.18699 13.922 7.09314 13.7906L2.09314 6.79062C1.98427 6.63821 1.96972 6.43774 2.05542 6.27121C2.14112 6.10467 2.31271 6 2.5 6H5V3.5ZM6 4V6.5C6 6.77614 5.77614 7 5.5 7H3.4716L7.5 12.6398L11.5284 7H9.5C9.22386 7 9 6.77614 9 6.5V4H6Z" fill="currentColor" fill-rule="evenodd" clip-rule="evenodd" style="--darkreader-inline-fill: currentColor;" data-darkreader-inline-fill=""></path></svg>
